X: 1233
T: Autumn Leaves
B: australian traditional tunes wiki
M:4/4
L:1/8
R: Hornpipe
Q: 1/4=100
K:D
V:1 
|:AF|"D"DF Ad "G"BG Bd|"D"AF Adf2ag|"G"gf ge "A7"cA df|"D"ed cB "A7"AG FE|
"D"DF Ad "G"BG Bd|"D"AF Adf2ag|"G"gf ge "A7"cA de|"D"d2d2d2:|
|:ef|"G"gf ge "A7"cA Bc|"D"dc def2ef|!"G"gf ge "A7"cA df|"D"ed cB "A7"AG FE|
"D"DF Ad "G"BG Bd|"D"AF Adf2af|"G"gf ge "A7"cA de|"D"d2d2d2:|
% abcbook-tune_id 6342d53a459fd50a28cb68ce


% abcbook-boost 0
% abcbook-tablature 
% abcbook-transpose 
% abcbook-lastupdated 1665324355187
% abcbook-soundfonts 
% abcbook-repeats 1
% NFF Book 2013

